P3
# 8x8 red and blue checkerboard
8 8
255
255 0 0   0 0 255    255 0 0   0 0 255    255 0 0   0 0 255    255 0 0   0 0 255
0 0 255   255 0 0    0 0 255   255 0 0    0 0 255   255 0 0    0 0 255   255 0 0
255 0 0   0 0 255    255 0 0   0 0 255    255 0 0   0 0 255    255 0 0   0 0 255
0 0 255   255 0 0    0 0 255   255 0 0    0 0 255   255 0 0    0 0 255   255 0 0
255 0 0   0 0 255    255 0 0   0 0 255    255 0 0   0 0 255    255 0 0   0 0 255
0 0 255   255 0 0    0 0 255   255 0 0    0 0 255   255 0 0    0 0 255   255 0 0
255 0 0   0 0 255    255 0 0   0 0 255    255 0 0   0 0 255    255 0 0   0 0 255
0 0 255   255 0 0    0 0 255   255 0 0    0 0 255   255 0 0    0 0 255   255 0 0
